X:1
T:The Quaker
M:4/4
C:
S:Bacon (Jour 1956)
N:key change made explicit
A:Bampton
O:English
R:Reel
%P:A.(AB$^2$)$^4$
P:A.(AB2)4
K:G
%:
%:
Q:1/2=96
P:A
DG |\
B2 c<B AGFE  | (3EFE D2 D3  E | F2 F2 FEDF  | A2 G2 G3 B |\
d2 ed  c2 dB | A2    E2 E2 c2 | BAGF  E2 F2 | G4    G2   ||\
K:D
P:B
FG |\
A2 A2  B3  B | AGFG     A2 BA | GFEF  G2 AG | FEDE  F3 G |\
A2 A2  B3  B | AGFG     A2 BA | GFEF  GABc  | d2 D2 D2   ||
